X: 0124
T: the Inverness Reel - 8x32R
P: Honour the Piper
C: Nan Main
B: Miss Milligan's Miscellany v.1 #0124
B: Originally Ours v.1 p.175 #MMM-0124
Z: 2020 John Chambers <jc:trillian.mit.edu>
M: 4/4
L: 1/8
R: reel
K: A
%
ed |:\
"A"c2A2 "E7"BcdB | "A"c2A2 "G/Em"B=GEG | "A"c2A2 "E7"BcdB | "G"=gdBd "A"eAAe |
"A"c2A2 "E7"BcdB | "A"c2A2 "Em"B=GEG | "A"cefg "D"abaf | "E7"eabe' "A"c'aag ||
"A"agfe "G#/E7"dcBA | "A"cefa b2bc' | "D"d'2d'b "A"c'aec' | "B7"bagf "E"gee2 |
"E7"fdGf "A"ecEe | "E7"dBEd "A"c3A | "D"Bcde "F#/D"fefa |1 "E7"gegb "A"a2ed :|2 "E7"gegb "A"a2a2 |]
